X:977
T:My Darling's Awake
C:Nigel Gatherer
N:After "My Darling's Asleep"
Z:Nigel Gatherer
L:1/8
M:4/4
K:D
e | fd d/d/d cAGA | BGdB A3 G | FABc defd | gfed e2
ag | fd d/d/d cAGA | BGdB A3 G | FABc defa | gece d3 :|
G | FAdA BAdA | FAdA BAdA | FAdc defd | gfed eage |
fd d/d/d cAGA | BGdB A3 G | FABc defa | gece d3 :|
<end>
<start>
